**kern	**kern
*clefF4	*clefG2
*k[b-]	*k[b-]
*M3/4	*M3/4
=1	=1
4F	8a
.	8a
4A 4c	4.cc
4A 4c	.
.	8a
=2	=2
4F	8a
.	2cc
4A 4c	.
4A 4c	.
.	8a
=3	=3
4F	8cc
.	4ff
4A 4c	.
.	4.ee
4A 4c	.
=4	=4
4C	8dd
.	4dd
4G 4A#	.
.	4cc
4G 4A#	.
.	8g
=5	=5
4C	8a
.	4.a#
4G 4A#	.
4G 4A#	8g
.	8g
=6	=6
4C	2a#
4G 4A#	.
4G 4A#	8g
.	8a#
=7	=7
4F	4ee
4A 4c	4dd
4A 4c	4cc
=8	=8
4C	4ee
4G 4A#	2ff
4G 4A#	.
=9	=9
4F	8f
.	8f
4A 4c	2ff
4A 4c	.
=10	=10
4AA#	8dd
.	8a#
4A# 4d	4cc
4A# 4d	4a
=11	=11
4F	8f
.	8f
4A 4c	4a
4C 4E	4g
=12	=12
4F	4g
4A 4c	8a#
.	8cc
4A 4c	4dd
=13	=13
4AA#	4cc
4A# 4d	8a
.	8a#
4A# 4d	4cc
=14	=14
4C	8f
.	8f
4G 4A#	2ff
4G 4A#	.
=15	=15
4FF	8dd
.	8a#
4F 4A	4cc
4F	4a
=16	=16
4F	4f
4A 4c	4.cc
4A 4c	.
.	8e
=17	=17
4F	2.f
4A 4c	.
4A 4c	.
=18	=18
4F	8a
.	8a
4A 4c	4.cc
4A 4c	.
.	8a
=19	=19
4C	8a
.	2cc
4G 4A#	.
4G 4A#	.
.	8a
=20	=20
4C	8cc
.	4ff
4G 4A#	.
.	4.ee
4G 4A#	.
=21	=21
4C	8dd
.	4dd
4G 4A#	.
.	4cc
4G 4A#	.
.	8g
=22	=22
4F	8a
.	4.a#
4A 4c	.
4A 4c	8g
.	8g
=23	=23
4C	2a#
4G 4A#	.
4G 4A#	8g
.	8a#
=24	=24
4F	4ee
4A 4c	4dd
4A 4c	4cc
=25	=25
4AA#	4ee
4A# 4d	2ff
4A# 4d	.
=26	=26
4F	8f
.	8f
4A 4c	2ff
4C 4E	.
=27	=27
4F	8dd
.	8a#
4A 4c	4cc
4A 4c	4a
=28	=28
4AA#	8f
.	8f
4A# 4d	4a
4A# 4d	4g
=29	=29
4C	4g
4G 4A#	8a#
.	8cc
4G 4A#	4dd
=30	=30
4FF	4cc
4F 4A	8a
.	8a#
4F	4cc
=31	=31
4F	8f
.	8f
4A 4c	2ff
4A 4c	.
=32	=32
4F	8dd
.	8a#
4A 4c	4cc
4A 4c	4a
=33	=33
4F	4f
4A 4c	4.cc
4A 4c	.
.	8e
=34	=34
4C	2.f
4G 4A#	.
4G 4A#	.
=35	=35
4C	8a
.	8a
4G 4A#	4.cc
4G 4A#	.
.	8a
=36	=36
4C	8a
.	2cc
4G 4A#	.
4G 4A#	.
.	8a
=37	=37
4F	8cc
.	4ff
4A 4c	.
.	4.ee
4A 4c	.
=38	=38
4C	8dd
.	4dd
4G 4A#	.
.	4cc
4G 4A#	.
.	8g
=39	=39
4F	8a
.	4.a#
4A 4c	.
4A 4c	8g
.	8g
=40	=40
4AA#	2a#
4A# 4d	.
4A# 4d	8g
.	8a#
=41	=41
4F	4ee
4A 4c	4dd
4C 4E	4cc
=42	=42
4F	4ee
4A 4c	2ff
4A 4c	.
=43	=43
4AA#	8f
.	8f
4A# 4d	2ff
4A# 4d	.
=44	=44
4C	8dd
.	8a#
4G 4A#	4cc
4G 4A#	4a
=45	=45
4FF	8f
.	8f
4F 4A	4a
4F	4g
=46	=46
2.r	4g
.	8a#
.	8cc
.	4dd
=47	=47
2.r	4cc
.	8a
.	8a#
.	4cc
=48	=48
2.r	8f
.	8f
.	2ff
=49	=49
2.r	8dd
.	8a#
.	4cc
.	4a
=50	=50
2.r	4f
.	4.cc
.	8e
=51	=51
2.r	2.f
==	==
*-	*-
